site/img/badger-on-black.svg

<?xml version="1.0" encoding="UTF-8" standalone="no"?>
<svg width="40px" height="40px" viewBox="0 0 40 40" version="1.1" xmlns="http://www.w3.org/2000/svg" xmlns:xlink="http://www.w3.org/1999/xlink">
    <!-- Generator: sketchtool 39.1 (31720) - http://www.bohemiancoding.com/sketch -->
    <title>D53DB73F-A2CA-42C8-A416-9DF9DA6BC5C8</title>
    <desc>Created with sketchtool.</desc>
    <defs>
        <polygon id="path-1" points="39.272 36.35875 39.272 0.228 0.00015 0.228 0.00015 36.35875 39.272 36.35875"></polygon>
    </defs>
    <g id="Symbols" stroke="none" stroke-width="1" fill="none" fill-rule="evenodd">
        <g id="Footer" transform="translate(-1353.000000, -435.000000)">
            <g id="Badger-on-black" transform="translate(1353.000000, 435.000000)">
                <g>
                    <path d="M6.31795,30.79135 C7.42945,25.66285 8.39545,22.18735 11.41695,17.35135 C14.66595,12.15085 23.39345,10.16635 28.67545,14.24685 C34.56895,18.79935 34.46195,33.66285 29.39945,35.05935 C24.15095,36.50735 19.51195,29.20185 15.22695,26.39935 C10.69545,23.43535 8.53345,24.14185 7.37895,26.39535" id="Fill-1" fill="#FFFFFF"></path>
                    <path d="M31.2763,30.8463 C31.3968,30.4578 31.5023,30.0383 31.5903,29.5908 C31.9473,27.7763 31.9908,25.6678 31.7283,23.6033 C31.5848,22.4753 31.1693,22.5753 31.1608,23.6573 C31.1403,26.2878 30.8143,28.4838 30.2783,28.4838 C29.3333,28.4838 28.8928,20.1218 26.1583,15.1288 C25.9163,14.6868 24.8303,13.6273 23.7923,13.4818 C22.4953,13.3003 21.1258,13.2723 19.7238,13.5083 C18.7678,13.6688 18.7053,14.7463 19.1573,15.1973 C23.4293,19.4583 26.0973,28.8108 25.0558,29.2078 C24.0038,29.6083 17.7493,20.2623 12.7013,19.4453 C12.3418,19.3868 11.5803,19.5593 11.1903,20.2243 C10.8383,20.8248 10.5493,21.4263 10.2963,22.0183 C9.9713,22.7783 10.3463,23.1378 10.9063,23.2198 C12.3198,23.4278 13.9803,24.0903 15.9113,25.3533 C17.3293,26.2808 18.7058,27.5943 20.1638,28.9853 C21.6943,30.4453 23.2528,31.9313 24.8118,32.9013 C25.1243,33.0958 25.6223,33.0678 26.0673,32.5593 C26.5073,32.0568 27.1983,31.5688 28.0978,31.3758 C28.8938,31.2048 29.6493,31.2828 30.2198,31.5193 C30.8303,31.7728 31.1508,31.2503 31.2763,30.8463" id="Fill-3" fill="#F9F9F9"></path>
                    <g id="Group-7" transform="translate(0.000000, 0.272250)">
                        <mask id="mask-2" fill="white">
                            <use xlink:href="#path-1"></use>
                        </mask>
                        <g id="Clip-6"></g>
                        <path d="M19.63615,0.22775 C8.79165,0.22775 0.00015,9.01925 0.00015,19.86375 C0.00015,24.61525 1.68815,28.97275 4.49665,32.36875 C4.70465,31.73875 4.90465,31.10875 5.07065,30.54025 C5.06915,30.44625 5.07515,30.35075 5.09615,30.25475 C6.04465,25.87875 6.89465,22.52325 9.23915,18.31125 C9.44065,17.94875 9.56965,16.97975 9.26265,16.22475 C9.07215,15.75625 8.94865,15.24975 8.94865,14.71175 C8.94865,12.60425 10.65715,10.89575 12.76415,10.89575 C13.33915,10.89575 13.87865,11.03475 14.37265,11.25075 C15.18465,11.60475 15.99715,11.79175 16.71065,11.47875 C17.51415,11.12625 18.39415,10.93425 19.28215,10.77525 C20.48165,10.55975 21.67315,10.52325 22.83115,10.57625 C23.91365,10.62575 24.34165,10.28225 25.13165,9.84825 C25.67815,9.54825 26.27465,9.30625 26.94515,9.30625 C28.78565,9.30625 30.42565,10.80425 30.27815,12.63925 C30.20565,13.54225 30.64965,14.11475 30.88815,14.40225 C34.04565,18.19875 35.01965,24.83675 34.04365,29.80075 C33.44265,32.85575 32.15015,34.93375 30.37165,35.75375 L30.28365,36.35875 C35.69065,32.86125 39.27215,26.78275 39.27215,19.86375 C39.27215,9.01925 30.48065,0.22775 19.63615,0.22775" id="Fill-5" fill="#F9F9F9" mask="url(#mask-2)"></path>
                    </g>
                    <path d="M28.0979,31.37575 C27.1984,31.56875 26.5074,32.05675 26.0674,32.55925 C25.6224,33.06825 25.1244,33.09575 24.8119,32.90125 C23.2524,31.93125 21.6944,30.44525 20.1639,28.98525 C18.7059,27.59425 17.3289,26.28075 15.9109,25.35325 C13.9804,24.09075 12.3199,23.42775 10.9064,23.21975 C10.3464,23.13775 9.9714,22.77825 10.2964,22.01825 C10.5494,21.42625 10.8384,20.82475 11.1904,20.22475 C11.5804,19.55975 12.3419,19.38725 12.7014,19.44525 C17.7494,20.26225 24.0039,29.60825 25.0559,29.20775 C26.0974,28.81075 23.4289,19.45825 19.1574,15.19725 C18.7049,14.74625 18.7679,13.66875 19.7234,13.50825 C21.1259,13.27275 22.4954,13.30025 23.7924,13.48175 C24.8304,13.62725 25.9164,14.68675 26.1584,15.12875 C28.8929,20.12175 29.3329,28.48375 30.2779,28.48375 C30.8139,28.48375 31.1404,26.28775 31.1609,23.65725 C31.1694,22.57525 31.5849,22.47525 31.7284,23.60325 C31.9909,25.66775 31.9474,27.77625 31.5904,29.59075 C31.5024,30.03825 31.3969,30.45775 31.2764,30.84625 C31.1509,31.25025 30.8304,31.77325 30.2199,31.51975 C29.6494,31.28275 28.8939,31.20475 28.0979,31.37575 M30.8884,14.67425 C30.6494,14.38725 30.2054,13.81475 30.2779,12.91175 C30.4254,11.07675 28.7859,9.57875 26.9449,9.57875 C26.2744,9.57875 25.6779,9.82075 25.1319,10.12075 C24.3414,10.55475 23.9139,10.89825 22.8309,10.84825 C21.6734,10.79525 20.4819,10.83225 19.2824,11.04725 C18.3944,11.20625 17.5144,11.39875 16.7104,11.75125 C15.9974,12.06425 15.1849,11.87725 14.3724,11.52275 C13.8784,11.30725 13.3389,11.16825 12.7644,11.16825 C10.6569,11.16825 8.9489,12.87675 8.9489,14.98375 C8.9489,15.52175 9.0719,16.02875 9.2624,16.49675 C9.5694,17.25225 9.4409,18.22075 9.2389,18.58325 C6.8949,22.79575 6.0449,26.15075 5.0964,30.52675 C5.0754,30.62275 5.0689,30.71825 5.0709,30.81275 C4.9044,31.38125 4.7044,32.01125 4.4969,32.64125 C8.0984,36.99675 13.5429,39.77225 19.6359,39.77225 C23.5619,39.77225 28.6155066,37.7031744 30.2834,36.63125 C31.9512934,35.5593256 32.7742914,34.7409052 32.7742914,34.7409052 C32.9803461,34.3010858 33.4424,33.12775 34.0434,30.07325 C35.0199,25.10875 34.0454,18.47075 30.8884,14.67425 Z" id="Fill-8" fill="#212121"></path>
                </g>
            </g>
        </g>
    </g>
</svg>

<svg width="40" height="40" viewBox="0 0 40 40" xmlns="http://www.w3.org/2000/svg" xmlns:xlink="http://www.w3.org/1999/xlink"><defs><path id="a" d="M39.272 36.359V.228H0v36.13h39.272z"/></defs><g fill="none" fill-rule="evenodd"><path d="M6.318 30.791c1.111-5.128 2.077-8.604 5.099-13.44 3.249-5.2 11.976-7.185 17.258-3.104 5.894 4.552 5.787 19.416.724 20.812-5.248 1.448-9.887-5.857-14.172-8.66-4.532-2.964-6.694-2.257-7.848-.004" fill="#FFF"/><path d="M31.276 30.846c.12-.388.226-.808.314-1.255.357-1.815.4-3.923.138-5.988-.143-1.128-.559-1.028-.567.054-.02 2.63-.347 4.827-.883 4.827-.945 0-1.385-8.362-4.12-13.355-.242-.442-1.328-1.502-2.366-1.647-1.297-.182-2.666-.21-4.068.026-.956.16-1.019 1.238-.567 1.69 4.272 4.26 6.94 13.613 5.899 14.01-1.052.4-7.307-8.946-12.355-9.763-.36-.058-1.12.114-1.51.78a15.8 15.8 0 0 0-.895 1.793c-.325.76.05 1.12.61 1.202 1.414.208 3.074.87 5.005 2.133 1.418.928 2.795 2.241 4.253 3.632 1.53 1.46 3.089 2.946 4.648 3.916.312.195.81.167 1.255-.342a3.764 3.764 0 0 1 2.03-1.183c.797-.171 1.552-.093 2.123.143.61.254.93-.269 1.056-.673" fill="#F9F9F9"/><g transform="translate(0 .272)"><mask id="b" fill="#fff"><use xlink:href="#a"/></mask><path d="M19.636.228C8.792.228 0 9.019 0 19.864c0 4.751 1.688 9.109 4.497 12.505.208-.63.408-1.26.574-1.829-.002-.094.004-.19.025-.285.949-4.376 1.799-7.732 4.143-11.944.202-.362.33-1.331.024-2.086a4.004 4.004 0 0 1-.314-1.513 3.816 3.816 0 0 1 3.815-3.816c.575 0 1.115.139 1.609.355.812.354 1.624.54 2.338.228.803-.353 1.683-.545 2.571-.704 1.2-.215 2.391-.252 3.55-.199 1.082.05 1.51-.294 2.3-.728.546-.3 1.143-.542 1.813-.542 1.84 0 3.48 1.498 3.333 3.333-.072.903.372 1.476.61 1.763 3.158 3.797 4.132 10.435 3.156 15.399-.601 3.055-1.894 5.133-3.672 5.953l-.088.605c5.407-3.498 8.988-9.576 8.988-16.495C39.272 9.019 30.481.228 19.636.228" fill="#F9F9F9" mask="url(#b)"/></g><path d="M28.098 31.376c-.9.193-1.59.68-2.03 1.183-.446.51-.944.537-1.256.342-1.56-.97-3.118-2.456-4.648-3.916-1.458-1.39-2.835-2.704-4.253-3.632-1.93-1.262-3.591-1.925-5.005-2.133-.56-.082-.935-.442-.61-1.202.253-.592.542-1.193.894-1.793.39-.665 1.152-.838 1.511-.78 5.048.817 11.303 10.163 12.355 9.763 1.041-.397-1.627-9.75-5.899-14.01-.452-.452-.39-1.53.566-1.69 1.403-.235 2.772-.208 4.07-.026 1.037.145 2.123 1.205 2.365 1.647 2.735 4.993 3.175 13.355 4.12 13.355.536 0 .862-2.196.883-4.827.008-1.082.424-1.182.567-.054.263 2.065.22 4.173-.138 5.988-.088.447-.193.867-.314 1.255-.125.404-.446.927-1.056.674-.57-.237-1.326-.315-2.122-.144m2.79-16.702c-.239-.287-.683-.86-.61-1.762.147-1.835-1.492-3.333-3.333-3.333-.67 0-1.267.242-1.813.542-.79.434-1.218.777-2.301.727-1.158-.053-2.35-.016-3.549.2-.888.158-1.768.35-2.572.703-.713.313-1.525.126-2.338-.228a4.01 4.01 0 0 0-1.608-.355 3.815 3.815 0 0 0-3.815 3.816c0 .538.123 1.045.313 1.513.307.755.179 1.724-.023 2.086-2.344 4.213-3.194 7.568-4.143 11.944a1.21 1.21 0 0 0-.025.286 59.108 59.108 0 0 1-.574 1.828c3.601 4.356 9.046 7.131 15.139 7.131 3.926 0 8.98-2.069 10.647-3.14 1.668-1.073 2.491-1.891 2.491-1.891.206-.44.668-1.613 1.27-4.668.976-4.964.001-11.602-3.156-15.399z" fill="#212121"/></g></svg>
